!!!OTL: Ic sie die morgensterre
!!!ARE: Europa, Mitteleuropa, Deutschland
!!!SCT: L0035A
!!!YEM: Copyright 1995, estate of Helmut Schaffrath.
**kern
*ICvox
*Ivox
*M4/4
*k[b-]
*d:
{4d
=1
4fn
4g
4a
4dd
=2
4ccn
4b
4a}
{4a
=3
4ccn
4b-
4a
4g
=4
4g
4fn
4r}
{8fn
8d
=5
4e
4fn
4g
4d
=6
4d
4cn
4r}
{8fn
8d
=7
4e
4fn
4g
4fn
=8
4e
2d}
==
!!!AGN: Lied
!! Wiener Hs, 15. Jh.
!!!ONB: ESAC (Essen Associative Code) Database: ERK5
!!!AMT: simple quadruple
!!!AIN: vox
!!!EED: Helmut Schaffrath
!!!EEV: 1.0
*-
